icons/zoom-to-object-16.svg

<svg xmlns="http://www.w3.org/2000/svg" viewBox="0 0 16 16"><title>zoom-to-object-16</title><g id="icons"><path d="M15.29279,0l-3.293,3.293V1h-.99988V5h4V4.00012l-2.293-.00006,3.293-3.293Zm-3.293,4.00006ZM5.99988,8a2,2,0,1,0,2-2A1.99986,1.99986,0,0,0,5.99988,8Zm3-.50006V8.5a.5.5,0,0,1-.5.5h-1a.5.5,0,0,1-.5-.5V7.49994a.5.5,0,0,1,.5-.5h1A.5.5,0,0,1,8.99988,7.49994Zm7,7.793-3.293-3.293h2.293V11h-4v4h.99988V12.707L15.29279,16Zm-4.00012-3.29285ZM.99988,11.99988h2.293l-3.293,3.293L.707,16,4,12.707V15h.99988V11h-4Zm3.00012,0ZM4,3.293.707,0-.00012.70709l3.293,3.293-2.293.00006V5h4V1H4Zm0,.70709Z"/></g></svg>

<svg xmlns="http://www.w3.org/2000/svg" viewBox="0 0 16 16"><path d="M15.293 0L12 3.293V1h-1v4h4V4h-2.293L16 .707zM12 4zM6 8a2 2 0 102-2 2 2 0 00-2 2zm3-.5v1a.5.5 0 01-.5.5h-1a.5.5 0 01-.5-.5v-1a.5.5 0 01.5-.5h1a.5.5 0 01.5.5zm7 7.793L12.707 12H15v-1h-4v4h1v-2.293L15.293 16zM12 12zM1 12h2.293L0 15.293.707 16 4 12.707V15h1v-4H1zm3 0zm0-8.707L.707 0 0 .707 3.293 4H1v1h4V1H4zM4 4z"/></svg>
